X:101
T:When We Go Down To Washington
B:American Veteran Fifer #101
C:By A.F. Hopkins Fife Major Product of 1862
M:2/4
L:1/8
Q:1/8=180
K:D t=8
f/e/ | dB- Bc/B/ | FB- Bc/d/ | cA- A/B/c/d/ | e2 f>e |
dB- Bc/B/ | FB- B>c | df- f/e/d/c/ | B3 :|
|: f/g/ | af af/a/ | bf ab/a/ | fede | f3 f/e/ |
dB cd/c/ | FB- BB/c/ | df- f/e/d/c/ | B3 :|
